src/assets/telegram.svg

<?xml version="1.0" encoding="UTF-8"?>
<svg width="30px" height="30px" viewBox="0 0 30 30" version="1.1" xmlns="http://www.w3.org/2000/svg" xmlns:xlink="http://www.w3.org/1999/xlink">
    <title>74664B3D-B586-4D77-B917-D0C2536EE89A</title>
    <g id="Page-1" stroke="none" stroke-width="1" fill="none" fill-rule="evenodd">
        <g id="Artboard-Copy-3" transform="translate(-704.000000, -838.000000)" fill="#FFFFFF">
            <g id="Telegram" transform="translate(704.000000, 838.000000)">
                <path d="M15,0 C23.2842712,0 30,6.71572875 30,15 C30,23.2842712 23.2842712,30 15,30 C6.71572875,30 0,23.2842712 0,15 C0,6.71572875 6.71572875,0 15,0 Z M21.3252,9.1130375 L6.87645,14.6844125 C5.8901875,15.08 5.8959375,15.6302375 6.696675,15.8754125 L10.40455,17.0327 L18.988675,11.617075 C19.3939125,11.3713375 19.7658375,11.5034513 19.460575,11.774375 L12.506,18.05 L12.50525,18.050875 L12.25,21.875 C12.625,21.875 12.7906875,21.7035 13,21.5 L14.802,19.748 L18.55,22.517375 C19.2398125,22.8979875 19.737675,22.700925 19.9095,21.8769375 L22.370125,10.2815625 C22.62205,9.2715375 21.9851125,8.8134375 21.3252,9.1130375 Z" id="Combined-Shape"></path>
            </g>
        </g>
    </g>
</svg>

<svg xmlns="http://www.w3.org/2000/svg" width="30" height="30" xmlns:v="https://vecta.io/nano"><path d="M15 0c8.284 0 15 6.716 15 15s-6.716 15-15 15S0 23.284 0 15 6.716 0 15 0zm6.325 9.113L6.876 14.684c-.986.396-.981.946-.18 1.191l3.708 1.157 8.584-5.416c.405-.246.777-.114.472.157l-6.955 6.276-.001.001-.255 3.824c.375 0 .541-.172.75-.375l1.802-1.752 3.748 2.769c.69.381 1.188.184 1.36-.64l2.461-11.595c.252-1.01-.385-1.468-1.045-1.169z" fill="#fff" fill-rule="evenodd"/></svg>
